X:1993
T:Boys of Bluehill 
R:Hornpipe
S:
H:
N:Nice simple version
D:
Z:Adrian Scahill
M:4/4
L:1/8
K:D
d3A|BAFA D2FA|BABd e2d2|dfaf eafe|defd B2dA|\
BAFA D2FA|BA (3Bcd e2d2|dfaf eafe|1 d2d2 d2dA:|2 d2d2 d2df||\
:afdf a2a2|gfga b2ag|faaf eafe|defd B2dA|\
BAFA D2FA|BA (3Bcd e2d2|dfaf eafe|1 d2d2 d4:||


